svgs/detail-light.svg

<svg xmlns="http://www.w3.org/2000/svg" width="400" height="400" fill="none" viewBox="0 0 400 400"><path fill="#F0F3F5" d="M194.9 47.408c0-7.404-6-13.408-13.4-13.408H39.4C32 34 26 40.004 26 47.308V262.64c0 7.404 6 13.408 13.4 13.408h274.9c7.4 0 13.4-6.004 13.4-13.408V74.124c0-7.404-6-13.408-13.4-13.408h-106c-7.4 0-13.4-5.903-13.4-13.308"/><path fill="#999" fill-rule="evenodd" d="M78.2 183.489a9.184 9.184 0 0 0-9.2 9.206v160.097a9.184 9.184 0 0 0 9.2 9.206h120.5c5.095 0 9.2-4.107 9.2-9.206V192.695a9.185 9.185 0 0 0-9.2-9.206zM65 192.695c0-7.309 5.895-13.208 13.2-13.208h120.5c7.305 0 13.2 5.899 13.2 13.208v160.097c0 7.309-5.895 13.208-13.2 13.208H78.2c-7.305 0-13.2-5.899-13.2-13.208z" clip-rule="evenodd"/><path fill="#999" fill-rule="evenodd" d="M94.2 247.531c0-24.481 19.834-44.327 44.3-44.327s44.3 19.846 44.3 44.327-19.834 44.327-44.3 44.327-44.3-19.846-44.3-44.327m44.3-40.324c-22.257 0-40.3 18.054-40.3 40.324 0 22.271 18.043 40.325 40.3 40.325s40.3-18.054 40.3-40.325c0-22.27-18.043-40.324-40.3-40.324" clip-rule="evenodd"/><path fill="#999" fill-rule="evenodd" d="M94.2 247.528a2 2 0 0 1 2-2.001h42.3a2 2 0 0 1 2 2.001v42.326a2 2 0 0 1-2 2.001c-24.505 0-44.3-19.807-44.3-44.327m4.049 2.001c1.006 20.713 17.551 37.268 38.251 38.275v-38.275zM88 313.868a2 2 0 0 1 2-2.001h96.9a2 2 0 0 1 0 4.003H90a2 2 0 0 1-2-2.002m0 22.914a2 2 0 0 1 2-2.001h96.9a2 2 0 0 1 0 4.002H90a2 2 0 0 1-2-2.001" clip-rule="evenodd"/><path fill="#FFBE5C" d="m238.8 161.077-.2-29.818s-108.3-5.703-126.7-6.004c-11.8 0-15.1 18.812-18.3 32.52z"/><path fill="#FFD493" d="M150.8 266.341c-15.8.5-20.8-12.508-21-30.318-.3-22.614-1.8-63.839-2-77.347-.2-13.509-3.2-33.121-15.9-33.121 16.4-.9 120.7 4.703 138.3 5.404 17.5.8 21 18.711 21 26.316 0 7.504 1 105.664 1 105.664s-104 2.902-121.4 3.402"/><path fill="#DD7E10" fill-rule="evenodd" d="M146.9 196.666a2 2 0 0 1 2.031-1.97l101.7 1.601a2 2 0 0 1-.063 4.002l-101.7-1.601a2 2 0 0 1-1.968-2.032m.2 20.52a2 2 0 0 1 2.023-1.977l101.6 1.2a2.001 2.001 0 0 1-.047 4.003l-101.6-1.201a2 2 0 0 1-1.976-2.025m105.7 20.232a2 2 0 0 1-1.995 2.007l-101.5.3a2 2 0 0 1-.011-4.002l101.5-.301a2 2 0 0 1 2.006 1.996" clip-rule="evenodd"/><path fill="#FFBE5C" d="M182.2 171.682c-11.1 0-14 7.304-14 26.916.3 22.614.9 20.112 1 33.32.2 13.208-5.4 34.221-20.6 34.521 23.2-.6 122.9-.1 140.6-.5 17.6-.4 20.9-12.407 20.9-27.216s-.5-62.338-.5-62.338-109.6-4.603-127.4-4.703"/><path fill="#FFD493" d="M215.599 339.283c-15.3.601-20-12.107-20.2-29.617-.2-22.114-1.2-102.963-1.4-116.171 0-7.004-1.9-21.913-11.8-21.913 15.9-1.101 113.4 3.502 130.4 4.102 16.9.601 20.3 18.211 20.3 25.616 0 7.404.4 132.38.4 132.38s-100.9 4.903-117.7 5.603"/><path fill="#FFBE5C" fill-rule="evenodd" d="m271.444 178.287-89.3-2.502.112-4.001 89.3 2.502z" clip-rule="evenodd" opacity=".2"/><path fill="#DD7E10" fill-rule="evenodd" d="m212.5 240.425 16 .1c1.3 0 2.3-1 2.2-2.101l-.3-44.427c0-1.101-1-2.101-2.2-2.101l-16-.3c-1.3 0-2.3 1-2.3 2.201l.4 44.527c0 1.101 1 2.101 2.2 2.101m29.7.199 15.7.1c1.2 0 2.3-1.001 2.3-2.101l-.1-8.205c0-1.201-1-2.202-2.2-2.202l-15.7-.2c-1.3 0-2.3 1.001-2.3 2.202l.1 8.205c0 1.2 1 2.201 2.2 2.201m44.7.402-15.5-.1a2.22 2.22 0 0 1-2.2-2.202l-.1-25.615c0-1.201 1-2.202 2.3-2.202l15.5.201c1.2 0 2.2 1 2.2 2.201l.1 25.515c0 1.201-1 2.202-2.3 2.202m13.4.1 15.3.1c1.2 0 2.3-1.001 2.3-2.101l-.1-19.612c0-1.201-1-2.202-2.2-2.202l-15.3-.2c-1.3 0-2.3 1.001-2.3 2.202l.1 19.611c0 1.201 1 2.202 2.2 2.202m-154.2-87.399a2 2 0 0 1 2.045-1.955l105.5 2.401a2.002 2.002 0 0 1-.091 4.002l-105.5-2.402a2 2 0 0 1-1.954-2.046M317 258.933a2 2 0 0 1-1.996 2.005l-101.7.2a2 2 0 0 1-.008-4.003l101.7-.2a2 2 0 0 1 2.004 1.998m.1 20.104a2 2 0 0 1-1.989 2.013l-101.6.6a2 2 0 0 1-2.011-1.989 2 2 0 0 1 1.988-2.013l101.6-.6a2 2 0 0 1 2.012 1.989m.099 18.984a2 2 0 0 1-1.96 2.04l-101.5 2.001a2 2 0 0 1-.079-4.001l101.5-2.002a2 2 0 0 1 2.039 1.962" clip-rule="evenodd"/><path fill="#FFBE5C" d="M215.6 339.284c19.9-2.001 17.3-26.316 17.3-26.316l141.1-3.702s.3 25.415-16.7 26.015c-17.2.501-119.3 3.202-141.7 4.003"/><path fill="#F0F3F5" d="M336.5 99.338c-11.5-2.902-23.2 4.002-26.1 15.509s4 23.214 15.5 26.116c3.6.901 7.3.901 10.6 0z"/><path fill="#999" fill-rule="evenodd" d="M307.8 120.151c0-12.932 10.476-23.415 23.4-23.415s23.4 10.483 23.4 23.415-10.477 23.414-23.4 23.414c-12.924 0-23.4-10.483-23.4-23.414m23.4-19.412c-10.715 0-19.4 8.691-19.4 19.412s8.685 19.411 19.4 19.411 19.4-8.691 19.4-19.411-8.686-19.412-19.4-19.412" clip-rule="evenodd"/><path fill="#999" fill-rule="evenodd" d="M345.086 134.745a2 2 0 0 1 2.828 0l17.3 17.311a2 2 0 1 1-2.828 2.83l-17.3-17.311a2 2 0 0 1 0-2.83" clip-rule="evenodd"/></svg>

<svg width="400" height="400" viewBox="0 0 400 400" fill="none" xmlns="http://www.w3.org/2000/svg">
<g id="detail">
<g id="detail_2">
<path id="Path" d="M194.9 47.4081C194.9 40.0036 188.9 34 181.5 34H39.4C32 34 26 40.0036 26 47.3081V262.639C26 270.043 32 276.047 39.4 276.047H314.3C321.7 276.047 327.7 270.043 327.7 262.639V74.1244C327.7 66.7199 321.7 60.7162 314.3 60.7162H208.3C200.9 60.7162 194.9 54.8126 194.9 47.4081Z" fill="#F0F3F5"/>
<path id="Path (Stroke)" fill-rule="evenodd" clip-rule="evenodd" d="M78.2 183.489C73.1046 183.489 69 187.596 69 192.695V352.792C69 357.891 73.1046 361.998 78.2 361.998H198.7C203.795 361.998 207.9 357.891 207.9 352.792V192.695C207.9 187.596 203.795 183.489 198.7 183.489H78.2ZM65 192.695C65 185.386 70.8954 179.487 78.2 179.487H198.7C206.005 179.487 211.9 185.386 211.9 192.695V352.792C211.9 360.101 206.005 366 198.7 366H78.2C70.8954 366 65 360.101 65 352.792V192.695Z" fill="#999999"/>
<path id="Oval (Stroke)" fill-rule="evenodd" clip-rule="evenodd" d="M94.2002 247.531C94.2002 223.05 114.034 203.204 138.5 203.204C162.966 203.204 182.8 223.05 182.8 247.531C182.8 272.012 162.966 291.858 138.5 291.858C114.034 291.858 94.2002 272.012 94.2002 247.531ZM138.5 207.207C116.243 207.207 98.2002 225.261 98.2002 247.531C98.2002 269.802 116.243 287.856 138.5 287.856C160.757 287.856 178.8 269.802 178.8 247.531C178.8 225.261 160.757 207.207 138.5 207.207Z" fill="#999999"/>
<path id="Shape (Stroke)" fill-rule="evenodd" clip-rule="evenodd" d="M94.2 247.528C94.2 246.423 95.0954 245.527 96.2 245.527H138.5C139.605 245.527 140.5 246.423 140.5 247.528V289.854C140.5 290.959 139.605 291.855 138.5 291.855C113.995 291.855 94.2 272.048 94.2 247.528ZM98.2485 249.529C99.2549 270.242 115.8 286.797 136.5 287.804V249.529H98.2485ZM88 313.868C88 312.763 88.8954 311.867 90 311.867H186.9C188.005 311.867 188.9 312.763 188.9 313.868C188.9 314.974 188.005 315.87 186.9 315.87H90C88.8954 315.87 88 314.974 88 313.868ZM88 336.782C88 335.677 88.8954 334.781 90 334.781H186.9C188.005 334.781 188.9 335.677 188.9 336.782C188.9 337.887 188.005 338.783 186.9 338.783H90C88.8954 338.783 88 337.887 88 336.782Z" fill="#999999"/>
<g id="Group">
<path id="Path_2" d="M238.8 161.077L238.6 131.259C238.6 131.259 130.3 125.556 111.9 125.255C100.1 125.255 96.7996 144.067 93.5996 157.775L238.8 161.077Z" fill="#FFBE5C"/>
<path id="Path_3" d="M150.8 266.341C135 266.841 130 253.833 129.8 236.023C129.5 213.409 128 172.184 127.8 158.676C127.6 145.167 124.6 125.555 111.9 125.555C128.3 124.655 232.6 130.258 250.2 130.959C267.7 131.759 271.2 149.67 271.2 157.275C271.2 164.779 272.2 262.939 272.2 262.939C272.2 262.939 168.2 265.841 150.8 266.341Z" fill="#FFD493"/>
<path id="Shape (Stroke)_2" fill-rule="evenodd" clip-rule="evenodd" d="M146.9 196.666C146.917 195.561 147.827 194.679 148.931 194.696L250.631 196.297C251.736 196.315 252.617 197.225 252.599 198.33C252.582 199.435 251.673 200.317 250.568 200.299L148.868 198.698C147.764 198.681 146.883 197.771 146.9 196.666ZM147.1 217.186C147.113 216.081 148.019 215.196 149.123 215.209L250.723 216.409C251.828 216.422 252.713 217.329 252.7 218.434C252.686 219.539 251.781 220.425 250.676 220.412L149.076 219.211C147.972 219.198 147.087 218.291 147.1 217.186ZM252.8 237.418C252.803 238.523 251.91 239.421 250.805 239.425L149.305 239.725C148.201 239.728 147.303 238.835 147.3 237.73C147.296 236.624 148.189 235.726 149.294 235.723L250.794 235.422C251.898 235.419 252.796 236.312 252.8 237.418Z" fill="#DD7E10"/>
<path id="Path_4" d="M182.2 171.682C171.1 171.682 168.2 178.986 168.2 198.598C168.5 221.212 169.1 218.71 169.2 231.918C169.4 245.126 163.8 266.139 148.6 266.439C171.8 265.839 271.5 266.339 289.2 265.939C306.8 265.539 310.1 253.532 310.1 238.723C310.1 223.914 309.6 176.385 309.6 176.385C309.6 176.385 200 171.782 182.2 171.682Z" fill="#FFBE5C"/>
<path id="Path_5" d="M215.599 339.283C200.299 339.884 195.599 327.176 195.399 309.666C195.199 287.552 194.199 206.703 193.999 193.495C193.999 186.491 192.099 171.582 182.199 171.582C198.099 170.481 295.599 175.084 312.599 175.684C329.499 176.285 332.899 193.895 332.899 201.3C332.899 208.704 333.299 333.68 333.299 333.68C333.299 333.68 232.399 338.583 215.599 339.283Z" fill="#FFD493"/>
<path id="Path (Stroke)_2" opacity="0.2" fill-rule="evenodd" clip-rule="evenodd" d="M271.444 178.287L182.144 175.785L182.256 171.784L271.556 174.286L271.444 178.287Z" fill="#FFBE5C"/>
<path id="Shape" fill-rule="evenodd" clip-rule="evenodd" d="M212.5 240.425L228.5 240.525C229.8 240.525 230.8 239.525 230.7 238.424L230.4 193.997C230.4 192.896 229.4 191.896 228.2 191.896L212.2 191.596C210.9 191.596 209.9 192.596 209.9 193.797L210.3 238.324C210.3 239.425 211.3 240.425 212.5 240.425ZM242.2 240.624L257.9 240.724C259.1 240.724 260.2 239.723 260.2 238.623L260.1 230.418C260.1 229.217 259.1 228.216 257.9 228.216L242.2 228.016C240.9 228.016 239.9 229.017 239.9 230.218L240 238.423C240 239.623 241 240.624 242.2 240.624ZM286.9 241.026L271.4 240.926C270.2 240.926 269.2 239.925 269.2 238.724L269.1 213.109C269.1 211.908 270.1 210.907 271.4 210.907L286.9 211.108C288.1 211.108 289.1 212.108 289.1 213.309L289.2 238.824C289.2 240.025 288.2 241.026 286.9 241.026ZM300.3 241.126L315.6 241.226C316.8 241.226 317.9 240.225 317.9 239.125L317.8 219.513C317.8 218.312 316.8 217.311 315.6 217.311L300.3 217.111C299 217.111 298 218.112 298 219.313L298.1 238.924C298.1 240.125 299.1 241.126 300.3 241.126Z" fill="#DD7E10"/>
<path id="Shape (Stroke)_3" fill-rule="evenodd" clip-rule="evenodd" d="M146.1 153.727C146.125 152.622 147.041 151.747 148.145 151.772L253.645 154.173C254.749 154.199 255.624 155.115 255.599 156.22C255.574 157.325 254.658 158.2 253.554 158.175L148.054 155.773C146.95 155.748 146.075 154.832 146.1 153.727ZM317 258.933C317.002 260.038 316.108 260.936 315.004 260.938L213.304 261.138C212.199 261.14 211.302 260.246 211.3 259.141C211.297 258.035 212.191 257.138 213.296 257.135L314.996 256.935C316.1 256.933 316.997 257.827 317 258.933ZM317.1 279.037C317.106 280.142 316.216 281.043 315.111 281.05L213.511 281.65C212.407 281.657 211.506 280.766 211.5 279.661C211.493 278.556 212.383 277.654 213.488 277.648L315.088 277.048C316.192 277.041 317.093 277.932 317.1 279.037ZM317.199 298.021C317.221 299.126 316.343 300.039 315.239 300.061L213.739 302.062C212.635 302.084 211.722 301.206 211.7 300.101C211.678 298.996 212.556 298.082 213.66 298.061L315.16 296.059C316.265 296.038 317.177 296.916 317.199 298.021Z" fill="#DD7E10"/>
<path id="Path_6" d="M215.6 339.284C235.5 337.283 232.9 312.968 232.9 312.968L374 309.266C374 309.266 374.3 334.681 357.3 335.281C340.1 335.782 238 338.483 215.6 339.284Z" fill="#FFBE5C"/>
</g>
<g id="Group_2">
<path id="Path_7" d="M336.5 99.338C325 96.4362 313.3 103.34 310.4 114.847C307.5 126.354 314.4 138.061 325.9 140.963C329.5 141.864 333.2 141.864 336.5 140.963V99.338Z" fill="#F0F3F5"/>
<path id="Oval (Stroke)_2" fill-rule="evenodd" clip-rule="evenodd" d="M307.8 120.151C307.8 107.219 318.276 96.7363 331.2 96.7363C344.123 96.7363 354.6 107.219 354.6 120.151C354.6 133.082 344.123 143.565 331.2 143.565C318.276 143.565 307.8 133.082 307.8 120.151ZM331.2 100.739C320.485 100.739 311.8 109.43 311.8 120.151C311.8 130.871 320.485 139.562 331.2 139.562C341.914 139.562 350.6 130.871 350.6 120.151C350.6 109.43 341.914 100.739 331.2 100.739Z" fill="#999999"/>
<path id="Path (Stroke)_3" fill-rule="evenodd" clip-rule="evenodd" d="M345.086 134.745C345.867 133.964 347.133 133.964 347.914 134.745L365.214 152.056C365.995 152.837 365.995 154.104 365.214 154.886C364.433 155.667 363.167 155.667 362.386 154.886L345.086 137.575C344.304 136.794 344.304 135.527 345.086 134.745Z" fill="#999999"/>
</g>
</g>
</g>
</svg>
